assets/footer/mastodon_logo.svg

<svg width="32" height="32" viewBox="0 0 32 32" fill="none" xmlns="http://www.w3.org/2000/svg"><path fill-rule="evenodd" clip-rule="evenodd" d="M16 31c8.2843.0 15-6.7157 15-15C31 7.71573 24.2843 1 16 1 7.71573 1 1 7.71573 1 16c0 8.2843 6.71573 15 15 15zm3.8291-8.7561C22.247 21.9446 24.3522 20.4006 24.6168 18.9898 25.0337 16.7674 24.9993 13.5663 24.9993 13.5663c0-4.33859-2.7426-5.61031-2.7426-5.61031C20.8738 7.29772 18.4992 7.0209 16.0321 7H15.9715C13.5045 7.0209 11.1314 7.29772 9.74846 7.95599c0 0-2.74275 1.27172-2.74275 5.61031C7.00571 13.8293 7.00439 14.106 7.00303 14.394 6.99924 15.1938 6.99503 16.0812 7.01735 17.0074 7.11695 21.2504 7.76789 25.432 11.5529 26.4703 13.2981 26.9491 14.7965 27.0493 16.0032 26.9805 18.1916 26.8548 19.4201 26.1711 19.4201 26.1711L19.348 24.5254S17.7841 25.0365 16.0278 24.9742C14.2877 24.9124 12.4507 24.7797 12.1692 22.5655 12.1432 22.371 12.1302 22.163 12.1302 21.9446c0 0 1.7082.4328 3.873.535599999999999C17.3269 22.5431 18.5683 22.3998 19.8291 22.2439z" fill="#a9b3d4"/><path d="M21.7646 13.9025v5.2534H19.7565V14.057c0-1.0749-.436399999999999-1.6205-1.3092-1.6205-.965.0-1.4486.6472-1.4486 1.9269v2.7909H15.0024V14.3634c0-1.2797-.4838-1.9269-1.4488-1.9269-.8728.0-1.3091.5456-1.3091 1.6205v5.0989H10.2363V13.9025c0-1.0736.2638-1.9268.7936-2.558.5464-.6313 1.2619-.9549 2.1501-.9549 1.0276.0 1.8058.4094 2.3203 1.2282l.5002.8691L16.5008 11.6178C17.0152 10.799 17.7934 10.3896 18.8211 10.3896 19.7092 10.3896 20.4247 10.7132 20.9711 11.3445 21.5009 11.9757 21.7646 12.8289 21.7646 13.9025z" fill="#a9b3d4"/></svg>

<svg width="32" height="32" viewBox="0 0 32 32" fill="none" xmlns="http://www.w3.org/2000/svg">
<path fill-rule="evenodd" clip-rule="evenodd" d="M16 31C24.2843 31 31 24.2843 31 16C31 7.71573 24.2843 1 16 1C7.71573 1 1 7.71573 1 16C1 24.2843 7.71573 31 16 31ZM19.8291 22.2439C22.247 21.9446 24.3522 20.4006 24.6168 18.9898C25.0337 16.7674 24.9993 13.5663 24.9993 13.5663C24.9993 9.22771 22.2567 7.95599 22.2567 7.95599C20.8738 7.29772 18.4992 7.0209 16.0321 7H15.9715C13.5045 7.0209 11.1314 7.29772 9.74846 7.95599C9.74846 7.95599 7.00571 9.22771 7.00571 13.5663C7.00571 13.8293 7.00439 14.106 7.00303 14.394C6.99924 15.1938 6.99503 16.0812 7.01735 17.0074C7.11695 21.2504 7.76789 25.432 11.5529 26.4703C13.2981 26.9491 14.7965 27.0493 16.0032 26.9805C18.1916 26.8548 19.4201 26.1711 19.4201 26.1711L19.348 24.5254C19.348 24.5254 17.7841 25.0365 16.0278 24.9742C14.2877 24.9124 12.4507 24.7797 12.1692 22.5655C12.1432 22.371 12.1302 22.163 12.1302 21.9446C12.1302 21.9446 13.8384 22.3774 16.0032 22.4802C17.3269 22.5431 18.5683 22.3998 19.8291 22.2439Z" fill="#A9B3D4"/>
<path d="M21.7646 13.9025V19.1559H19.7565V14.057C19.7565 12.9821 19.3201 12.4365 18.4473 12.4365C17.4823 12.4365 16.9987 13.0837 16.9987 14.3634V17.1543H15.0024V14.3634C15.0024 13.0837 14.5186 12.4365 13.5536 12.4365C12.6808 12.4365 12.2445 12.9821 12.2445 14.057V19.1559H10.2363V13.9025C10.2363 12.8289 10.5001 11.9757 11.0299 11.3445C11.5763 10.7132 12.2918 10.3896 13.18 10.3896C14.2076 10.3896 14.9858 10.799 15.5003 11.6178L16.0005 12.4869L16.5008 11.6178C17.0152 10.799 17.7934 10.3896 18.8211 10.3896C19.7092 10.3896 20.4247 10.7132 20.9711 11.3445C21.5009 11.9757 21.7646 12.8289 21.7646 13.9025Z" fill="#A9B3D4"/>
</svg>
